X: 9
T: The Morning Dew
R: reel
M: 4/4
L: 1/8
K: Edor
~E3 B BAFA | EBEB AGFG | E^DEB BAFA | BddB AGFD |E3 B BAFA | EBGB AGFG | ~E3 B BAFA | BcdB AGFA ||~B2 eB fBeB | ~B2 dB ADFA | B2 eB fBeB | dcdB ADFA | BEeB fBeB | EBBG ADFA | B/c/d eg fAec | d2 dB ADFA ||B2 GB FBEB | BEGB ADFA | BEGF EFGA | BddB ADFA | BAGF EFGA | B/c/B GB AD F/G/A | ~B2 GB EBGB | BGdB AGFD |]E^DEB BAFD | EGBE ADFA | E^DEB BAFA | BddB AGFD |E3 B BA F/G/A | EBGB AGFD | E/E/E EB BAFA | BcdB AGFA ||B2 eB fBeB | ~B2 dB ADFA | B2 eB fBec | dB B/c/d ADFA | B/c/B eB fB e2 | EB-BG ADFA | B/c/d eg fAec | d/f/e dB ADFD ||BEGF E/E/E GA | BEGB ADFA | BEGF EFGA | Bd-dB ADFA | BEGF EFGA | BEGB ADFA | ~B2 GB FBEB | BGdB ADFD |]


Tune 69	Setting 12533

